img/svg/mechanism.svg

<svg width="43" height="44" viewBox="0 0 43 44" fill="none" xmlns="http://www.w3.org/2000/svg">
<g clip-path="url(#clip0)">
<path d="M20.2148 11.4927C21.5306 8.31372 24.6323 6.24072 28.0728 6.24072C31.5134 6.24072 34.6151 8.31372 35.9309 11.4927C37.2468 14.6718 36.5175 18.3304 34.0834 20.762C33.8054 21.0306 33.3633 21.0268 33.09 20.7534C32.8165 20.48 32.8127 20.038 33.0813 19.7599C35.1099 17.7337 35.7177 14.6846 34.6213 12.0354C33.5248 9.3861 30.94 7.65852 28.0728 7.65852C25.2056 7.65852 22.6208 9.3861 21.5243 12.0354C20.4279 14.6847 21.0357 17.7337 23.0643 19.7599C23.2485 19.9379 23.3224 20.2013 23.2576 20.4492C23.1927 20.697 22.9992 20.8905 22.7514 20.9553C22.5036 21.0202 22.2402 20.9462 22.0622 20.762C19.6281 18.3304 18.8989 14.6718 20.2148 11.4927Z" fill="white"/>
<path d="M17.457 24.1859C16.9744 23.7111 16.9013 22.9588 17.2834 22.4L18.4237 20.6828C17.7935 19.6627 17.3306 18.5485 17.0523 17.3822L15.0367 16.9819C14.3728 16.8488 13.8958 16.2649 13.8978 15.5878V13.9152C13.8973 13.2413 14.3714 12.6602 15.0317 12.5254L17.0487 12.1243C17.327 10.958 17.79 9.84378 18.4201 8.82373L17.2826 7.11076C16.9002 6.55248 16.9728 5.80043 17.4549 5.32554L18.6413 4.1363C19.1161 3.65368 19.8684 3.58059 20.4272 3.96264L22.1444 5.10295C23.1645 4.47283 24.2787 4.00989 25.445 3.73158L25.8454 1.71597C25.9782 1.05354 26.5602 0.576816 27.2359 0.577149H28.9085C29.5836 0.576983 30.165 1.05296 30.2983 1.71464L30.6995 3.73167C31.8657 4.00998 32.9799 4.47291 34 5.10304L35.7129 3.96554C36.2703 3.58225 37.0223 3.65335 37.4981 4.13422L38.6873 5.32064C39.17 5.79545 39.2431 6.54774 38.861 7.10661L37.7207 8.82381C38.3508 9.84387 38.8138 10.9581 39.0921 12.1243L41.1077 12.5247C41.7702 12.6575 42.2469 13.2395 42.2466 13.9152V15.5878C42.2467 16.2629 41.7708 16.8443 41.1091 16.9776L39.0921 17.3788C38.8138 18.545 38.3508 19.6592 37.7207 20.6793L38.8582 22.3923C39.2415 22.9497 39.1704 23.7017 38.6895 24.1775L37.5031 25.3646C37.0282 25.8468 36.2761 25.92 35.7171 25.5382L33.9999 24.3979C32.9799 25.028 31.8656 25.491 30.6994 25.7693L30.299 27.7849C30.1671 28.4483 29.5848 28.926 28.9085 28.9259H27.2359C26.562 28.9264 25.9809 28.4523 25.8461 27.792L25.445 25.775C24.2787 25.4967 23.1645 25.0338 22.1444 24.4036L20.4315 25.5411C20.1971 25.7011 19.92 25.787 19.6363 25.7878C19.2634 25.7871 18.9063 25.6376 18.6441 25.3725L17.457 24.1859ZM16.7901 13.6219L15.3152 13.9153L15.3117 15.5871L16.7901 15.8812C16.7532 15.5092 16.7327 15.1328 16.7327 14.7515C16.7327 14.3703 16.7532 13.9939 16.7901 13.6219ZM39.3543 15.8812L40.8291 15.5878V13.916L39.3543 13.6175C39.3911 13.9939 39.4117 14.3702 39.4117 14.7515C39.4117 15.1328 39.3911 15.5092 39.3543 15.8812ZM19.6384 5.14199L18.462 6.32275L19.2982 7.5786C19.7776 6.99349 20.3139 6.45746 20.8992 5.97833L19.6384 5.14199ZM28.9084 1.99461H27.2366L26.9425 3.47304C27.3146 3.43268 27.6909 3.41208 28.0722 3.41208C28.4535 3.41208 28.8298 3.43259 29.2019 3.46947L28.9084 1.99461ZM36.501 5.14132L35.2451 5.97758C35.8302 6.45697 36.3663 6.99324 36.8454 7.5786L37.6817 6.31777L36.501 5.14132ZM36.506 24.361L37.6824 23.1803L36.8461 21.9245C36.3668 22.5096 35.8305 23.0456 35.2451 23.5248L36.506 24.361ZM27.2359 27.5085L28.9078 27.5121L29.2019 26.0336C28.8298 26.0705 28.4535 26.091 28.0722 26.091C27.6909 26.091 27.3146 26.0705 26.9425 26.0336L27.2359 27.5085ZM28.0722 24.6736C33.552 24.6736 37.9943 20.2313 37.9943 14.7515C37.9884 9.27412 33.5495 4.83536 28.0722 4.82946C22.5923 4.82946 18.1501 9.27171 18.1501 14.7515C18.1501 20.2314 22.5923 24.6736 28.0722 24.6736ZM19.6434 24.3618L20.8992 23.5255C20.3141 23.0461 19.7781 22.5099 19.299 21.9245L18.4627 23.1853L19.6434 24.3618Z" fill="white"/>
<path d="M28.0728 11.9167C29.6384 11.9167 30.9076 13.186 30.9076 14.7516C30.9076 16.3172 29.6384 17.5865 28.0728 17.5865C26.5072 17.5865 25.2379 16.3173 25.2379 14.7517C25.2379 13.186 26.5072 11.9167 28.0728 11.9167ZM28.0728 16.1691C28.8556 16.1691 29.4902 15.5345 29.4902 14.7516C29.4902 13.9687 28.8556 13.3341 28.0728 13.3341C27.2899 13.3341 26.6553 13.9687 26.6553 14.7516C26.6553 15.5345 27.2899 16.1691 28.0728 16.1691Z" fill="white"/>
<path d="M8.03393 29.9893C8.27853 30.0549 8.46955 30.2461 8.53499 30.4907C8.60044 30.7353 8.53043 30.9963 8.35128 31.1753C7.81891 31.706 7.51967 32.4268 7.51967 33.1785C7.51967 33.9301 7.81891 34.651 8.35128 35.1817C9.47125 36.2546 11.2377 36.2546 12.3577 35.1817C12.8898 34.651 13.1889 33.9304 13.1889 33.1789C13.1889 32.4273 12.8899 31.7067 12.3577 31.1761C12.1785 30.9971 12.1085 30.736 12.174 30.4914C12.2394 30.2468 12.4304 30.0557 12.675 29.9901C12.9196 29.9244 13.1806 29.9943 13.3598 30.1733C14.5744 31.3893 14.9375 33.217 14.2799 34.8051C13.6224 36.393 12.0735 37.429 10.3549 37.4306C8.63565 37.4297 7.08622 36.3936 6.42844 34.8053C5.77066 33.217 6.13402 31.3888 7.34916 30.1727C7.52831 29.9935 7.78934 29.9237 8.03393 29.9893Z" fill="white"/>
<path d="M1.47243 35.7049L3.28814 33.6588C3.27751 33.4994 3.26405 33.3399 3.26405 33.1776C3.26405 33.0153 3.27751 32.8559 3.28814 32.6964L1.47733 30.656C1.06722 30.201 0.997124 29.5335 1.30367 29.0032L2.21576 27.422C2.52662 26.9018 3.13075 26.633 3.72533 26.7501L6.39789 27.298C6.66632 27.1203 6.94645 26.9609 7.23631 26.821L8.10521 24.2129C8.30428 23.6415 8.84239 23.2579 9.44751 23.2561H11.2618C11.8709 23.2588 12.4115 23.6471 12.6083 24.2235L13.473 26.8217C13.7629 26.9616 14.043 27.121 14.3114 27.2986L16.9939 26.7486C17.5891 26.6368 18.1907 26.9096 18.4985 27.4312L19.405 29.0081C19.7082 29.5353 19.6391 30.1977 19.2335 30.6509L17.4178 32.697C17.4284 32.8564 17.4419 33.0159 17.4419 33.1782C17.4419 33.3405 17.4284 33.4999 17.4178 33.6594L19.2286 35.6998C19.6387 36.1547 19.7088 36.8222 19.4022 37.3525L18.4901 38.9337C18.1777 39.4521 17.5749 39.7204 16.9806 39.6056L14.308 39.0578C14.0396 39.2354 13.7595 39.3947 13.4696 39.5347L12.6043 42.1435C12.4052 42.7149 11.8671 43.0984 11.262 43.1003H9.44767C8.83856 43.0976 8.29797 42.7093 8.10114 42.1329L7.23647 39.5347C6.94662 39.3948 6.66648 39.2354 6.39805 39.0578L3.71553 39.6077C3.62774 39.6246 3.53846 39.6332 3.44909 39.6332C2.94031 39.6318 2.46982 39.3625 2.21094 38.9245L1.30093 37.3476C0.997704 36.8205 1.06689 36.1581 1.47243 35.7049ZM3.44195 28.14L2.53618 29.7106L3.6333 30.9473C3.93844 30.0335 4.42729 29.1917 5.06987 28.4739L3.44195 28.14ZM11.262 24.6737L9.44693 24.6701L8.92818 26.2356C9.86934 26.0434 10.8396 26.0434 11.7808 26.2356L11.262 24.6737ZM18.1748 29.712L17.2655 28.1394L15.6398 28.4725C16.2822 29.1911 16.7712 30.0332 17.0771 30.9473L18.1748 29.712ZM17.2698 38.2173L18.1755 36.6467L17.0763 35.41C16.7712 36.3238 16.2823 37.1656 15.6398 37.8834L17.2698 38.2173ZM9.44767 41.6829L11.2627 41.6865L11.7815 40.1237C10.8403 40.316 9.87 40.316 8.92884 40.1237L9.44767 41.6829ZM8.11808 38.3859L8.14922 38.4016C9.56013 38.9978 11.1523 38.9978 12.5632 38.4016L12.588 38.3895C14.6714 37.4945 16.0224 35.4458 16.0246 33.1783C16.022 30.9105 14.67 28.8618 12.5858 27.9678L12.566 27.9579C9.7034 26.8065 6.44556 28.1555 5.23498 30.9936C4.02448 33.8317 5.30574 37.1168 8.11808 38.3859ZM3.44411 38.2173L5.06987 37.8841C4.42746 37.1655 3.93844 36.3234 3.63256 35.4093L2.53477 36.6447L3.44411 38.2173Z" fill="white"/>
<path d="M10.3548 33.8871C10.1663 33.889 9.98492 33.8149 9.85162 33.6816C9.71832 33.5483 9.64424 33.3669 9.64615 33.1784C9.64723 33.0858 9.6665 32.9942 9.70287 32.909C9.73884 32.8232 9.78917 32.7441 9.85171 32.6752C10.1359 32.413 10.5739 32.413 10.8581 32.6752C10.9206 32.7441 10.9709 32.8232 11.0069 32.909C11.0432 32.9942 11.0625 33.0858 11.0636 33.1784C11.0655 33.3669 10.9914 33.5483 10.8581 33.6816C10.7248 33.8149 10.5434 33.889 10.3548 33.8871Z" fill="white"/>
</g>
<defs>
<clipPath id="clip0">
<rect width="42.5231" height="42.5231" fill="white" transform="matrix(-1 0 0 1 42.9417 0.577148)"/>
</clipPath>
</defs>
</svg>

<svg width="43" height="44" viewBox="0 0 43 44" fill="none" xmlns="http://www.w3.org/2000/svg"><g clip-path="url(#a)" fill="#fff"><path d="M20.215 11.493a8.505 8.505 0 1 1 13.868 9.269.709.709 0 0 1-1.002-1.002 7.087 7.087 0 1 0-10.017 0 .709.709 0 1 1-1.002 1.002 8.504 8.504 0 0 1-1.847-9.27z"/><path d="M17.457 24.186a1.398 1.398 0 0 1-.174-1.786l1.14-1.717a11.246 11.246 0 0 1-1.37-3.3l-2.016-.401a1.417 1.417 0 0 1-1.14-1.394v-1.673c0-.674.474-1.255 1.135-1.39l2.017-.4a11.236 11.236 0 0 1 1.371-3.301L17.283 7.11a1.397 1.397 0 0 1 .172-1.785l1.186-1.19a1.398 1.398 0 0 1 1.786-.173l1.717 1.14a11.248 11.248 0 0 1 3.301-1.371l.4-2.016a1.418 1.418 0 0 1 1.39-1.139h1.674c.675 0 1.256.476 1.39 1.138l.4 2.017c1.167.278 2.28.74 3.301 1.371l1.713-1.137a1.398 1.398 0 0 1 1.785.168l1.19 1.187c.482.474.555 1.227.173 1.786l-1.14 1.717a11.249 11.249 0 0 1 1.371 3.3l2.016.4a1.42 1.42 0 0 1 1.139 1.391v1.673c0 .675-.476 1.256-1.138 1.39l-2.017.4a11.25 11.25 0 0 1-1.371 3.301l1.137 1.713c.384.558.312 1.31-.168 1.785l-1.187 1.188a1.4 1.4 0 0 1-1.786.173L34 24.398a11.248 11.248 0 0 1-3.3 1.371l-.401 2.016a1.417 1.417 0 0 1-1.39 1.14h-1.673a1.417 1.417 0 0 1-1.39-1.133l-.401-2.017a11.246 11.246 0 0 1-3.3-1.371l-1.713 1.137a1.4 1.4 0 0 1-1.787-.169l-1.188-1.186zm-.667-10.564l-1.475.293-.003 1.672 1.478.294a11.434 11.434 0 0 1-.057-1.13c0-.38.02-.757.057-1.13zm22.564 2.26l1.475-.294v-1.672l-1.475-.299a11.102 11.102 0 0 1 0 2.264zM19.638 5.141l-1.176 1.18.836 1.257a11.428 11.428 0 0 1 1.601-1.6l-1.26-.837zm9.27-3.147h-1.671l-.294 1.478c.372-.04.748-.06 1.13-.06.38 0 .757.02 1.129.056l-.294-1.474zm7.593 3.146l-1.256.837a11.413 11.413 0 0 1 1.6 1.6l.837-1.26L36.5 5.14zm.005 19.22l1.176-1.18-.836-1.257a11.422 11.422 0 0 1-1.6 1.6l1.26.837zm-9.27 3.148l1.672.003.294-1.478a11.435 11.435 0 0 1-2.26 0l.294 1.474zm.836-2.835c5.48 0 9.922-4.443 9.922-9.922-.006-5.478-4.444-9.917-9.922-9.923-5.48 0-9.922 4.443-9.922 9.922 0 5.48 4.442 9.923 9.922 9.923zm-8.429-.312l1.256-.836a11.422 11.422 0 0 1-1.6-1.602l-.836 1.261 1.18 1.177z"/><path d="M28.073 11.917a2.835 2.835 0 1 1 0 5.67 2.835 2.835 0 0 1 0-5.67zm0 4.252a1.417 1.417 0 1 0 0-2.835 1.417 1.417 0 0 0 0 2.835zM8.034 29.99a.709.709 0 0 1 .317 1.185 2.829 2.829 0 0 0 0 4.007 2.896 2.896 0 0 0 4.007 0 2.829 2.829 0 0 0 0-4.006.709.709 0 1 1 1.002-1.003 4.252 4.252 0 0 1-3.005 7.258 4.252 4.252 0 0 1-3.006-7.258c.18-.18.44-.25.685-.184z"/><path d="M1.472 35.705l1.816-2.046c-.01-.16-.024-.32-.024-.481 0-.163.014-.322.024-.482l-1.81-2.04a1.413 1.413 0 0 1-.174-1.653l.912-1.581c.31-.52.915-.789 1.51-.672l2.672.548c.268-.178.548-.337.838-.477l.87-2.608a1.423 1.423 0 0 1 1.342-.957h1.814a1.43 1.43 0 0 1 1.346.968l.865 2.598c.29.14.57.299.838.477l2.683-.55a1.439 1.439 0 0 1 1.505.682l.906 1.577a1.41 1.41 0 0 1-.172 1.643l-1.815 2.046c.01.16.024.319.024.481 0 .163-.014.322-.024.481l1.81 2.04c.41.456.48 1.123.174 1.654l-.912 1.58a1.443 1.443 0 0 1-1.51.673l-2.672-.548a7.168 7.168 0 0 1-.838.477l-.866 2.609c-.199.57-.737.954-1.342.956H9.448a1.43 1.43 0 0 1-1.347-.967l-.865-2.598c-.29-.14-.57-.3-.838-.477l-2.682.55a1.443 1.443 0 0 1-1.505-.683l-.91-1.577a1.41 1.41 0 0 1 .171-1.643zm1.97-7.565l-.906 1.57 1.097 1.237a7.062 7.062 0 0 1 1.437-2.473l-1.628-.334zm7.82-3.466l-1.815-.004-.519 1.566a7.128 7.128 0 0 1 2.853 0l-.519-1.562zm6.913 5.038l-.91-1.573-1.625.334a7.088 7.088 0 0 1 1.437 2.474l1.098-1.235zm-.905 8.505l.905-1.57-1.099-1.237a7.062 7.062 0 0 1-1.436 2.473l1.63.334zm-7.822 3.466l1.815.004.518-1.563a7.125 7.125 0 0 1-2.852 0l.519 1.559zm-1.33-3.297l.031.016a5.67 5.67 0 0 0 4.414 0l.025-.013a5.678 5.678 0 0 0 3.437-5.21 5.677 5.677 0 0 0-3.44-5.211l-.019-.01a5.67 5.67 0 0 0-4.448 10.428zm-4.674-.169l1.626-.333a7.088 7.088 0 0 1-1.437-2.475l-1.098 1.236.91 1.572z"/><path d="M10.355 33.887a.702.702 0 0 1-.652-.978.819.819 0 0 1 .149-.234.742.742 0 0 1 1.006 0 .82.82 0 0 1 .149.234.702.702 0 0 1-.652.978z"/></g><defs><clipPath id="a"><path fill="#fff" transform="matrix(-1 0 0 1 42.942 .577)" d="M0 0h42.523v42.523H0z"/></clipPath></defs></svg>
